!!!COM: Anon.
!!!OCL: Francis James Child
!!!OPR: The English and Scottish Popular Ballads
!!!OVM: Vol. 1
!!!ONB: Ballad No. 51, Tune No. 1b
!!!ONM: No. 51
!!!PDT: 1882
!!!YEM: Public domain.
**kern
*M4/4
*G:
{4d
=1
4g
4g
4b
4b
=2
4a
4a
4d}
!! Second phrase:
{4d
=3
4g
4d
4g
8a
8b
=4
2a}
4r
!! Third phrase:
{8.b
16cc
=5
4dd
8dd
8dd
8cc
8b
8a
8a
=6
8a
8cc
8b
8a
4g}
!! Fourth phrase:
{8b
8b
=7
4a
4d
8e
8e
4f#
=8
2g}
4r
====
*-
!!!OCY: Britain; England
!!!PPP: Boston
!!!ODT: <1882
!!!AFR: folk song
!!!AST: monophony
!!!AMT: simple quadruple
!!!SCA: Child Collection
!!!AIN: vox
!!!EEV: 1.0
!!!RDT: 1987 June
!!!YER: 1994 August 10
!!!VTS: 652652838
